X:128
T:Tangle Bransle
T:Bransle de Bourgoigne
M:C|
L:1/8
K:C
d4 B2 G2 | G2 AB c2 c2 | d3 c BABc | d4 B2 c2 | d4 B2 G2 | G2 AB c2 c2 | d2 c2 c2 B2 | c4 c4 :|
|: d4 d2 d2 | d4 d2 e2 | f4 e2 d2 | c4 B2 c2 :|
|: B2 AB c2 c2 | B2 AB c2 c2 | G2 G2 G2 B2 | A4 A4 :|
|: G2 G2 G2 A2 | A2 GF E2 D2 | G2 G2 G2 B2 | A4 A4 :|
%
%
